X:151
T:I'll never love thee more
Q:1/4=120
L:1/4
M:6/4
K:G
E|D2DG2A|B2BD2D|B2BA2G|E3-E2GE|D2DG2A|B2BD2D|B2BA2G|d3-d2c|
B2BA2G|c2de2e|d2BA2G|E3-E2GE|D2DG2A|Bcde2d|dB2A2G|G3G2|]

